icons/Adwaita-gray/scalable/mimetypes/text-html.svg

<?xml version="1.0" encoding="UTF-8"?>
<svg height="128px" viewBox="0 0 128 128" width="128px" xmlns="http://www.w3.org/2000/svg">
    <path d="m 28 8 h 50 l 30.042969 29.917969 v 74.058593 c 0 4.433594 -3.609375 8.023438 -8.042969 8.023438 h -72 c -4.433594 0 -8 -3.566406 -8 -8 v -96 c 0 -4.433594 3.566406 -8 8 -8 z m 0 0" fill="#f6f5f4"/>
    <path d="m 78 8 v 22 c 0 4.433594 3.609375 7.921875 8.042969 7.921875 l 22 -0.003906 z m 0 0" fill="#deddda"/>
    <path d="m 94.023438 73.917969 c 0 16.570312 -13.433594 30 -30 30 c -16.570313 0 -30 -13.429688 -30 -30 c 0 -16.566407 13.429687 -30 30 -30 c 16.566406 0 30 13.433593 30 30 z m 0 0" fill="#62a0ea"/>
    <path d="m 94.023438 72.917969 c 0 16.570312 -13.433594 30 -30 30 c -16.570313 0 -30 -13.429688 -30 -30 c 0 -16.566407 13.429687 -30 30 -30 c 16.566406 0 30 13.433593 30 30 z m 0 0" fill="#3584e4"/>
    <path d="m 46.023438 73.417969 c 0.0625 6.957031 1.441406 13.683593 3.917968 19.125 c -1.96875 1.007812 -3.640625 2.222656 -4.929687 3.582031 c -6.820313 -5.585938 -10.839844 -13.890625 -10.984375 -22.707031 z m 0 0" fill="#99c1f1"/>
    <path d="m 64.023438 73.417969 v 29.5 c -2.253907 0 -4.496094 -0.253907 -6.691407 -0.753907 c -6.734375 -4.71875 -11.191406 -16.050781 -11.308593 -28.746093 z m 0 0" fill="#62a0ea"/>
    <path d="m 64.023438 89.417969 v 13.5 c -2.253907 0 -4.496094 -0.253907 -6.691407 -0.753907 c -2.898437 -2.03125 -5.445312 -5.34375 -7.390625 -9.617187 c 3.953125 -2.023437 8.9375 -3.128906 14.082032 -3.128906 z m 0 0" fill="#3584e4"/>
    <path d="m 49.941406 92.542969 c 1.945313 4.273437 4.492188 7.589843 7.390625 9.621093 c -4.515625 -1.035156 -8.734375 -3.101562 -12.320312 -6.039062 c 1.289062 -1.359375 2.960937 -2.574219 4.929687 -3.582031 z m 0 0" fill="#62a0ea"/>
    <path d="m 82.019531 73.417969 c -0.0625 6.960937 -1.441406 13.683593 -3.917969 19.128906 c 1.972657 1.007813 3.640626 2.21875 4.929688 3.578125 c 6.820312 -5.585938 10.839844 -13.890625 10.988281 -22.707031 z m 0 0" fill="#1c71d8"/>
    <path d="m 64.023438 73.417969 v 29.5 c 2.25 0 4.492187 -0.253907 6.6875 -0.753907 c 6.734374 -4.71875 11.195312 -16.050781 11.308593 -28.746093 z m 0 0" fill="#3584e4"/>
    <path d="m 64.023438 89.417969 v 13.5 c 2.25 0 4.492187 -0.253907 6.6875 -0.753907 c 2.898437 -2.03125 5.445312 -5.34375 7.390624 -9.617187 c -3.953124 -2.023437 -8.933593 -3.128906 -14.078124 -3.128906 z m 0 0" fill="#1c71d8"/>
    <path d="m 78.101562 92.542969 c -1.945312 4.273437 -4.492187 7.589843 -7.390624 9.621093 c 4.519531 -1.035156 8.734374 -3.101562 12.320312 -6.039062 c -1.289062 -1.359375 -2.957031 -2.574219 -4.929688 -3.582031 z m 0 0" fill="#1a5fb4"/>
    <path d="m 64.023438 42.917969 c -16.570313 0 -30 13.433593 -30 30 c 0 0.167969 0 0.335937 0.003906 0.5 h 29.996094 z m 0 0" fill="#b3d3f9"/>
    <path d="m 57.335938 43.675781 c -4.519532 1.03125 -8.738282 3.097657 -12.324219 6.035157 c 1.289062 1.363281 2.960937 2.574218 4.929687 3.582031 c 1.945313 -4.273438 4.496094 -7.589844 7.394532 -9.617188 z m 0 0" fill="#d7e8fc"/>
    <path d="m 64.023438 42.917969 c -2.25 0 -4.496094 0.253906 -6.6875 0.757812 c -6.832032 4.78125 -11.3125 16.363281 -11.3125 29.242188 v 0.5 h 18 z m 0 0" fill="#99c1f1"/>
    <path d="m 64.023438 42.917969 c -2.25 0 -4.496094 0.253906 -6.6875 0.757812 c -2.898438 2.027344 -5.445313 5.34375 -7.390626 9.617188 c 3.953126 2.019531 8.933594 3.125 14.078126 3.125 z m 0 0" fill="#b3d3f9"/>
    <path d="m 64.023438 42.917969 c 16.566406 0 30 13.433593 30 30 c 0 0.167969 -0.003907 0.335937 -0.003907 0.5 h -29.996093 z m 0 0" fill="#3584e4"/>
    <path d="m 70.707031 43.675781 c 4.519531 1.03125 8.738281 3.097657 12.328125 6.035157 c -1.292968 1.363281 -2.960937 2.574218 -4.933594 3.582031 c -1.945312 -4.273438 -4.492187 -7.589844 -7.394531 -9.617188 z m 0 0" fill="#62a0ea"/>
    <path d="m 64.023438 42.917969 c 2.25 0 4.492187 0.253906 6.683593 0.757812 c 6.835938 4.78125 11.316407 16.363281 11.316407 29.242188 c 0 0.167969 0 0.335937 -0.003907 0.5 h -17.996093 z m 0 0" fill="#62a0ea"/>
    <path d="m 64.023438 42.917969 c 2.25 0 4.492187 0.253906 6.683593 0.757812 c 2.902344 2.027344 5.449219 5.34375 7.394531 9.617188 c -3.953124 2.019531 -8.933593 3.125 -14.078124 3.125 z m 0 0" fill="#99c1f1"/>
</svg>

<svg width="128" height="128" viewBox="0 0 128 128" fill="none" xmlns="http://www.w3.org/2000/svg">
<path d="M28 8H78L108.043 37.918V111.977C108.043 116.41 104.434 120 100 120H28C23.5664 120 20 116.434 20 112V16C20 11.5664 23.5664 8 28 8Z" fill="#F6F5F4"/>
<path d="M78 8V30C78 34.4336 81.6094 37.9219 86.043 37.9219L108.043 37.918L78 8Z" fill="#DEDDDA"/>
<path d="M94.0234 73.918C94.0234 90.4883 80.5898 103.918 64.0234 103.918C47.4531 103.918 34.0234 90.4883 34.0234 73.918C34.0234 57.3516 47.4531 43.918 64.0234 43.918C80.5898 43.918 94.0234 57.3516 94.0234 73.918Z" fill="#C0BFBC"/>
<path d="M94.0234 72.918C94.0234 89.4883 80.5898 102.918 64.0234 102.918C47.4531 102.918 34.0234 89.4883 34.0234 72.918C34.0234 56.3516 47.4531 42.918 64.0234 42.918C80.5898 42.918 94.0234 56.3516 94.0234 72.918Z" fill="#3584E4"/>
<path d="M46.0234 73.418C46.0859 80.375 47.4648 87.1016 49.9414 92.543C47.9727 93.5508 46.3008 94.7656 45.0117 96.125C38.1914 90.5391 34.1719 82.2344 34.0273 73.418H46.0234Z" fill="#DEDDDA"/>
<path d="M64.0234 73.418V102.918C61.7695 102.918 59.5273 102.664 57.332 102.164C50.5977 97.4453 46.1406 86.1133 46.0234 73.418H64.0234Z" fill="#C0BFBC"/>
<path d="M64.0234 89.418V102.918C61.7695 102.918 59.5273 102.664 57.332 102.164C54.4336 100.133 51.8867 96.8203 49.9414 92.5469C53.8945 90.5234 58.8789 89.418 64.0234 89.418Z" fill="#9A9996"/>
<path d="M49.9414 92.543C51.8867 96.8164 54.4336 100.133 57.332 102.164C52.8164 101.129 48.5977 99.0625 45.0117 96.125C46.3008 94.7656 47.9727 93.5508 49.9414 92.543Z" fill="#C0BFBC"/>
<path d="M82.0195 73.418C81.957 80.3789 80.5781 87.1016 78.1016 92.5469C80.0742 93.5547 81.7422 94.7656 83.0312 96.125C89.8516 90.5391 93.8711 82.2344 94.0195 73.418H82.0195Z" fill="#77767B"/>
<path d="M64.0234 73.418V102.918C66.2734 102.918 68.5156 102.664 70.7109 102.164C77.4453 97.4453 81.9063 86.1133 82.0195 73.418H64.0234Z" fill="#9A9996"/>
<path d="M64.0234 89.418V102.918C66.2734 102.918 68.5156 102.664 70.7109 102.164C73.6094 100.133 76.1563 96.8203 78.1016 92.5469C74.1484 90.5234 69.168 89.418 64.0234 89.418Z" fill="#77767B"/>
<path d="M78.1016 92.543C76.1563 96.8164 73.6094 100.133 70.7109 102.164C75.2305 101.129 79.4453 99.0625 83.0312 96.125C81.7422 94.7656 80.0742 93.5508 78.1016 92.543Z" fill="#5E5C64"/>
<path d="M64.0234 42.918C47.4531 42.918 34.0234 56.3516 34.0234 72.918C34.0234 73.0859 34.0234 73.2539 34.0273 73.418H64.0234V42.918Z" fill="#E8E8E8"/>
<path d="M57.3359 43.6758C52.8164 44.707 48.5977 46.7734 45.0117 49.7109C46.3008 51.0742 47.9727 52.2852 49.9414 53.293C51.8867 49.0195 54.4375 45.7031 57.3359 43.6758Z" fill="#F3F3F3"/>
<path d="M64.0234 42.918C61.7734 42.918 59.5273 43.1719 57.3359 43.6758C50.5039 48.457 46.0234 60.0391 46.0234 72.918V73.418H64.0234V42.918Z" fill="#DEDDDA"/>
<path d="M64.0234 42.918C61.7734 42.918 59.5273 43.1719 57.3359 43.6758C54.4375 45.7031 51.8906 49.0195 49.9453 53.293C53.8984 55.3125 58.8789 56.418 64.0234 56.418V42.918Z" fill="#EAEAEA"/>
<path d="M64.0234 42.918C80.5898 42.918 94.0234 56.3516 94.0234 72.918C94.0234 73.0859 94.0195 73.2539 94.0195 73.418H64.0234V42.918Z" fill="#9A9996"/>
<path d="M70.707 43.6758C75.2266 44.707 79.4453 46.7734 83.0352 49.7109C81.7422 51.0742 80.0742 52.2852 78.1016 53.293C76.1563 49.0195 73.6094 45.7031 70.707 43.6758Z" fill="#C0BFBC"/>
<path d="M64.0234 42.918C66.2734 42.918 68.5156 43.1719 70.707 43.6758C77.543 48.457 82.0234 60.0391 82.0234 72.918C82.0234 73.0859 82.0234 73.2539 82.0195 73.418H64.0234V42.918Z" fill="#C0BFBC"/>
<path d="M64.0234 42.918C66.2734 42.918 68.5156 43.1719 70.707 43.6758C73.6094 45.7031 76.1563 49.0195 78.1016 53.293C74.1484 55.3125 69.168 56.418 64.0234 56.418V42.918Z" fill="#DEDDDA"/>
</svg>
